X: 5
T: Man Of Aran
R: reel
M: 4/4
L: 1/8
K: Bmin
FBfe dB B2 | Aced cA A2 | FBfe dB B2 | FB B2 d2 cA |
FBfe dB B2 | ce e2 ceAc | d2 (3efg fB B2 | cedc dB B2 :||
df f2 dfed | (3cBA ce gece | dffe f2 f2 | fedc dB B2 |
df f2 dfaf | ce e2 gefe | d2 (3efg fB B2 | cedc dB B2 :||


Tune 973	Setting 29023

